X: 586
T: Tall Slender Maiden., The
T: an og-.bean caol .fada.
N:"With expression."
B:O'Neill's 586
Z:Transcribed by John B. Walsh (walsh@math.ubc.ca)
M:2/4
L:1/8
%Q:80
K:D
d/e/|f>e dB|d>B AF|A>B dd|d3 (d/e/)|
f>e d/e/f/g/|af dd/e/|fa gf|
e3 (d/e/)|f>e d/e/f/g/|af dd/e/|ff ed|B3 (d/e/)|
f>e dB|d>B AF|A>B dd|d3||


